X: 37851
T: Sord Cholmcille
R: polka
M: 2/4
K: Dmajor
|:DF AB/c/|dd c/B/A|A,C E>F|GG F/G/F/E/|
DF AB/c/|dd c/B/A|A,C E>F|ED D2:|
|:fA fA|f3 d/f/|eA eA|e3 d/e/|
fA fA|f2 g/f/e/d/|cA Bc|d/e/d/c/ d2:|

